X: 1
T:Denis Murphy's Slide
M:12/8
L:1/8
Q:80
C:arr. Kent Hiestand
S:Jig
K:HP
f|
{ag}a2d{g}fed{g}f2a{g}a2f|
{gf}g2e{g}f2d{g}e2d{g}Bcd|
{ag}a2d{g}fed{g}f2a{g}a2f|  !
{ag}a2f{g}efe{Gdc}d3/2{gdG}d2:| |:
A|
{g}d2e{gfg}f3{a}gfe{gfg}f3|
{a}gfe{g}f2d{g}e2d{g}B2A|  !
{g}d2e{gfg}f3{a}gfe{g}f2g|
{ag}a2f{g}efe{Gdc}d3/2{gdG}d2:|
